X: 19
T: Ashrei Ha'ish
C: Uri Shevach 1982
O: Israel
F: http://www.youtube.com/watch?v=f_B5sD9oT80
M: 2/4
L: 1/8
Q: 1/4=72
K: Bm
  "Bm" z4       |z4        |:F2D2          |AG/A/"G" G2    |"Em"E3/2F/ GF/E/  |[1 "Bm"F4 :|[2"Bm"F2- FD/E/|:
  "D"FF G/F/E/D/|E/F/E2D/D/|"Em"DC B,C/E/  |[1"D"D3D/E/    :|[2 "Bm" B,3-B,/F/|
|:"Bm"BBF3/2F/  |BBF3/2F/  |"D"d3/2e/ fe/d/|"Em"e/f/e2-e/B/|
  eeB3/2B/      | eeB3/2B/ |ed/e/f/e/d/e/  |[1"D"d3-d/F/   :|[2"D"d4          |



